icon-themes/breeze_svg/cmd/sc_square_rounded_unfilled.svg

<svg viewBox="0 0 16 16" xmlns="http://www.w3.org/2000/svg">/&gt;<path d="m4 2c-1.1079793 0-2 .8920207-2 2v8c0 1.107979.8920207 2 2 2h8c1.107979 0 2-.892021 2-2v-8c0-1.1079793-.892021-2-2-2zm0 1h8c.554 0 1 .446 1 1v8c0 .554-.446 1-1 1h-8c-.554 0-1-.446-1-1v-8c0-.554.446-1 1-1z" fill="#4d4d4d"/></svg>

<svg xmlns="http://www.w3.org/2000/svg" viewBox="0 0 16 16">
     />
 <path 
     style="fill:#4d4d4d" 
     d="M 4 2 C 2.8920207 2 2 2.8920207 2 4 L 2 12 C 2 13.107979 2.8920207 14 4 14 L 12 14 C 13.107979 14 14 13.107979 14 12 L 14 4 C 14 2.8920207 13.107979 2 12 2 L 4 2 z M 4 3 L 12 3 C 12.554 3 13 3.446 13 4 L 13 12 C 13 12.554 12.554 13 12 13 L 4 13 C 3.446 13 3 12.554 3 12 L 3 4 C 3 3.446 3.446 3 4 3 z "
     />
 </svg>
